icons/evolvere-blue-folders-flat-vivid-dark-fallback/apps/64/youtube.svg

<?xml version="1.0" encoding="UTF-8" standalone="no"?>
<!-- Created with Inkscape (http://www.inkscape.org/) -->

<svg
   xmlns:dc="http://purl.org/dc/elements/1.1/"
   xmlns:cc="http://creativecommons.org/ns#"
   xmlns:rdf="http://www.w3.org/1999/02/22-rdf-syntax-ns#"
   xmlns:svg="http://www.w3.org/2000/svg"
   xmlns="http://www.w3.org/2000/svg"
   xmlns:xlink="http://www.w3.org/1999/xlink"
   xmlns:sodipodi="http://sodipodi.sourceforge.net/DTD/sodipodi-0.dtd"
   xmlns:inkscape="http://www.inkscape.org/namespaces/inkscape"
   width="64"
   height="64"
   id="svg13094"
   version="1.1"
   inkscape:version="0.48.4 r9939"
   sodipodi:docname="youtube.svg">
  <sodipodi:namedview
     id="base"
     pagecolor="#cbcdd6"
     bordercolor="#666666"
     borderopacity="1.0"
     inkscape:pageopacity="1"
     inkscape:pageshadow="2"
     inkscape:zoom="11.313708"
     inkscape:cx="36.892591"
     inkscape:cy="31.304059"
     inkscape:document-units="px"
     inkscape:current-layer="svg13094"
     showgrid="true"
     inkscape:snap-bbox="true"
     inkscape:bbox-paths="true"
     inkscape:bbox-nodes="true"
     inkscape:snap-bbox-edge-midpoints="true"
     inkscape:snap-bbox-midpoints="true"
     inkscape:object-paths="true"
     inkscape:snap-intersection-paths="true"
     inkscape:object-nodes="true"
     inkscape:snap-smooth-nodes="true"
     inkscape:snap-midpoints="true"
     inkscape:snap-object-midpoints="true"
     inkscape:snap-center="true"
     showguides="true"
     inkscape:guide-bbox="true"
     inkscape:window-width="1920"
     inkscape:window-height="1025"
     inkscape:window-x="-2"
     inkscape:window-y="32"
     inkscape:window-maximized="1"
     inkscape:snap-global="true"
     fit-margin-top="0"
     fit-margin-left="0"
     fit-margin-right="0"
     fit-margin-bottom="0"
     showborder="true"
     inkscape:showpageshadow="false"
     inkscape:snap-page="true">
    <inkscape:grid
       type="xygrid"
       id="grid3075"
       empspacing="5"
       visible="true"
       enabled="true"
       snapvisiblegridlinesonly="true"
       originx="1.6362304e-08px"
       originy="18px" />
  </sodipodi:namedview>
  <defs
     id="defs13096">
    <radialGradient
       r="13"
       fy="19"
       fx="12"
       cy="19"
       cx="12"
       gradientUnits="userSpaceOnUse"
       id="radialGradient4872"
       xlink:href="#linearGradient4842-5"
       inkscape:collect="always" />
    <linearGradient
       inkscape:collect="always"
       id="linearGradient4842-5">
      <stop
         style="stop-color:#ffffff;stop-opacity:0.63652641"
         offset="0"
         id="stop4844-9" />
      <stop
         id="stop4850-8"
         offset="0.47900829"
         style="stop-color:#ffffff;stop-opacity:0.19874664" />
      <stop
         style="stop-color:#ffffff;stop-opacity:0;"
         offset="1"
         id="stop4846-0" />
    </linearGradient>
    <linearGradient
       inkscape:collect="always"
       id="linearGradient4842-55">
      <stop
         style="stop-color:#ffffff;stop-opacity:0.63652641"
         offset="0"
         id="stop4844-8" />
      <stop
         id="stop4850-6"
         offset="0.47900829"
         style="stop-color:#ffffff;stop-opacity:0.19874664" />
      <stop
         style="stop-color:#ffffff;stop-opacity:0;"
         offset="1"
         id="stop4846-5" />
    </linearGradient>
    <radialGradient
       r="13"
       fy="19"
       fx="12"
       cy="19"
       cx="12"
       gradientUnits="userSpaceOnUse"
       id="radialGradient3077"
       xlink:href="#linearGradient4842-55"
       inkscape:collect="always" />
    <linearGradient
       id="linearGradient4291-1">
      <stop
         style="stop-color:#dc2e31;stop-opacity:1;"
         offset="0"
         id="stop4293-4" />
      <stop
         style="stop-color:#bb2f33;stop-opacity:1;"
         offset="1"
         id="stop4295-9" />
    </linearGradient>
    <radialGradient
       r="32"
       fy="20.133331"
       fx="31.999998"
       cy="20.133331"
       cx="31.999998"
       gradientTransform="matrix(-3.0872202e-8,1.5417832,-1.5527344,-3.1091485e-8,63.261716,-28.337061)"
       gradientUnits="userSpaceOnUse"
       id="radialGradient3032"
       xlink:href="#linearGradient4291-1"
       inkscape:collect="always" />
  </defs>
  <metadata
     id="metadata13099">
    <rdf:RDF>
      <cc:Work
         rdf:about="">
        <dc:format>image/svg+xml</dc:format>
        <dc:type
           rdf:resource="http://purl.org/dc/dcmitype/StillImage" />
        <dc:title />
      </cc:Work>
    </rdf:RDF>
  </metadata>
  <path
     inkscape:connector-curvature="0"
     style="color:#000000;fill:#d13438;fill-opacity:1;fill-rule:nonzero;stroke:none;stroke-width:2.28571415;marker:none;visibility:visible;display:inline;overflow:visible;enable-background:accumulate"
     d="m 0,4 0,30 0,28 2,2 30,0 30,0 2,-2 L 64,34 64,4 32,4 0,4 z"
     id="path4095" />
  <path
     inkscape:connector-curvature="0"
     style="color:#000000;fill:#ff6779;fill-opacity:1;fill-rule:nonzero;stroke:none;stroke-width:2.28571415;marker:none;visibility:visible;display:inline;overflow:visible;enable-background:accumulate"
     d="M 2,0 0,1 0,4 32,4 64,4 64,1 62,0 32,0 2,0 z"
     id="path4090" />
  <path
     style="fill:#ff8796;fill-opacity:1;fill-rule:nonzero"
     d="M 0,3 0,6 2,4 z"
     id="path4298"
     inkscape:connector-curvature="0"
     sodipodi:nodetypes="cccc" />
  <path
     d="M 64,6 62,4 64,3 z"
     id="path3028"
     style="fill:#e84d58;fill-opacity:1"
     inkscape:connector-curvature="0" />
  <g
     id="g3043"
     inkscape:export-filename="folder.png"
     inkscape:export-xdpi="90"
     inkscape:export-ydpi="90"
     transform="translate(-0.62500009,0.082283)" />
  <g
     id="scalable"
     transform="matrix(1.0385892,0,0,1.0385892,1214.7222,1878.8121)"
     inkscape:label="#g3701"
     style="fill:#ffffff" />
  <g
     id="g3028-8">
    <path
       d="m 37.78969,34.083745 -10e-4,-7.3e-4 1.43901,-0.74559 -1.43791,0.74631"
       style="color:#000000;fill:#ffffff;fill-opacity:0.6784452;fill-rule:nonzero;stroke:none;marker:none;visibility:visible;display:inline;overflow:visible;enable-background:accumulate"
       id="path16-6"
       inkscape:connector-curvature="0" />
    <path
       id="path3941-6"
       d="M 32,21 C 28.981804,21 17.931167,21.270678 15.90625,22.863282 14.094988,24.287844 14,27.63512 14,34 c 0,6.36488 0.09498,9.712156 1.90625,11.136718 C 17.931167,46.729322 28.981804,47 32,47 35.018196,47 46.068832,46.729322 48.09375,45.136718 49.90502,43.712156 50,40.36488 50,34 50,27.63512 49.90502,24.287844 48.09375,22.863282 46.068832,21.270678 35.018196,21 32,21 z m -4,8 10,5 -10,5 0,-10 z"
       style="color:#000000;fill:#ffffff;fill-opacity:0.89266543;fill-rule:nonzero;stroke:none;stroke-width:1;marker:none;visibility:visible;display:inline;overflow:visible;enable-background:accumulate"
       inkscape:connector-curvature="0" />
  </g>
</svg>

<svg xmlns="http://www.w3.org/2000/svg" viewBox="0 0 64 64"><g color="#000"><path d="m0 4v30 28l2 2h30 30l2-2v-28-30h-32-32" fill="#d13438"/><path d="m2 0l-2 1v3h32 32v-3l-2-1h-30-30" fill="#ff6779"/></g><path d="m0 3v3l2-2z" fill="#ff8796"/><path d="m64 6l-2-2 2-1z" fill="#e84d58"/><g fill="#fff" color="#000"><path d="m37.79 34.08l1.438-.746-1.438.746" fill-opacity=".678"/><path d="m32 21c-3.02 0-14.07.271-16.09 1.863-1.811 1.425-1.906 4.772-1.906 11.137 0 6.365.095 9.712 1.906 11.137 2.025 1.593 13.08 1.863 16.09 1.863 3.02 0 14.07-.271 16.09-1.863 1.811-1.425 1.906-4.772 1.906-11.137 0-6.365-.095-9.712-1.906-11.137-2.025-1.593-13.08-1.863-16.09-1.863m-4 8l10 5-10 5v-10" fill-opacity=".893"/></g></svg>
